images/Icon_2.svg

<svg width="46" height="46" viewBox="0 0 46 46" fill="none" xmlns="http://www.w3.org/2000/svg">
<path fill-rule="evenodd" clip-rule="evenodd" d="M9.00001 0.599976C10.5464 0.599976 11.8 1.85358 11.8 3.39998V6.19998H14.6C16.1464 6.19998 17.4 7.45358 17.4 8.99998C17.4 10.5464 16.1464 11.8 14.6 11.8H11.8V14.6C11.8 16.1464 10.5464 17.4 9.00001 17.4C7.45361 17.4 6.20001 16.1464 6.20001 14.6V11.8H3.40001C1.85361 11.8 0.600006 10.5464 0.600006 8.99998C0.600006 7.45358 1.85361 6.19998 3.40001 6.19998H6.20001V3.39998C6.20001 1.85358 7.45361 0.599976 9.00001 0.599976ZM9.00001 28.6C10.5464 28.6 11.8 29.8536 11.8 31.4V34.2H14.6C16.1464 34.2 17.4 35.4536 17.4 37C17.4 38.5464 16.1464 39.8 14.6 39.8H11.8V42.6C11.8 44.1464 10.5464 45.4 9.00001 45.4C7.45361 45.4 6.20001 44.1464 6.20001 42.6V39.8H3.40001C1.85361 39.8 0.600006 38.5464 0.600006 37C0.600006 35.4536 1.85361 34.2 3.40001 34.2H6.20001V31.4C6.20001 29.8536 7.45361 28.6 9.00001 28.6Z" fill="#FF7500"/>
<path fill-rule="evenodd" clip-rule="evenodd" d="M28.5999 0.599976C29.8703 0.599976 30.9815 1.45533 31.3066 2.68348L34.6084 15.157L43.9991 20.5747C44.8658 21.0747 45.3999 21.9993 45.3999 23C45.3999 24.0006 44.8658 24.9252 43.9991 25.4253L34.6084 30.843L31.3066 43.3165C30.9815 44.5446 29.8703 45.4 28.5999 45.4C27.3294 45.4 26.2182 44.5446 25.8931 43.3165L22.5913 30.843L13.2008 25.4253C12.334 24.9252 11.8 24.0006 11.8 23C11.8 21.9993 12.334 21.0747 13.2008 20.5747L22.5913 15.157L25.8931 2.68348C26.2182 1.45533 27.3294 0.599976 28.5999 0.599976Z" fill="#FF7500"/>
</svg>

<svg width="46" height="46" fill="none" xmlns="http://www.w3.org/2000/svg"><path fill-rule="evenodd" clip-rule="evenodd" d="M9 .6a2.8 2.8 0 0 1 2.8 2.8v2.8h2.8a2.8 2.8 0 1 1 0 5.6h-2.8v2.8a2.8 2.8 0 1 1-5.6 0v-2.8H3.4a2.8 2.8 0 0 1 0-5.6h2.8V3.4A2.8 2.8 0 0 1 9 .6Zm0 28a2.8 2.8 0 0 1 2.8 2.8v2.8h2.8a2.8 2.8 0 1 1 0 5.6h-2.8v2.8a2.8 2.8 0 1 1-5.6 0v-2.8H3.4a2.8 2.8 0 1 1 0-5.6h2.8v-2.8A2.8 2.8 0 0 1 9 28.6ZM28.6.6a2.8 2.8 0 0 1 2.707 2.083l3.301 12.474L44 20.575a2.8 2.8 0 0 1 0 4.85l-9.39 5.418-3.302 12.473a2.8 2.8 0 0 1-5.414 0l-3.302-12.473-9.39-5.418a2.8 2.8 0 0 1 0-4.85l9.39-5.418 3.302-12.474A2.8 2.8 0 0 1 28.6.6Z" fill="#FF7500"/></svg>
